.icons/Gruvbox-Plus-Dark/apps/16/archlinux.svg

<svg width="16" height="16" version="1.1" xmlns="http://www.w3.org/2000/svg">
  <defs>
    <style type="text/css" id="current-color-scheme">.ColorScheme-Text { color:#ebdbb2; } .ColorScheme-Highlight { color:#458588; }</style>
  </defs>
  <path class="ColorScheme-Text" fill="currentColor" d="m7.999 1c-0.623 1.528-0.999 2.527-1.693 4.009 0.425 0.451 0.947 0.976 1.795 1.569-0.911-0.375-1.533-0.751-1.998-1.142-0.888 1.853-2.279 4.492-5.102 9.564 2.219-1.281 3.939-2.071 5.542-2.372-0.069-0.296-0.108-0.616-0.105-0.95l2e-3 -0.071c0.035-1.422 0.775-2.515 1.651-2.441s1.557 1.288 1.521 2.709c-6e-3 0.268-0.036 0.525-0.089 0.764 1.585 0.31 3.287 1.097 5.476 2.361-0.432-0.795-0.817-1.511-1.185-2.193-0.579-0.449-1.184-1.034-2.417-1.666 0.848 0.22 1.454 0.474 1.927 0.758-3.74-6.964-4.043-7.889-5.325-10.9z"/>
</svg>

<svg xmlns="http://www.w3.org/2000/svg" style="isolation:isolate" width="16" height="16" viewBox="0 0 16 16">
 <defs>
  <style id="current-color-scheme" type="text/css">
   .ColorScheme-Text { color:#ebdbb2; } .ColorScheme-Highlight { color:#458588; }
  </style>
  <linearGradient id="arrongin" x1="0%" x2="0%" y1="0%" y2="100%">
   <stop offset="0%" style="stop-color:#d79921; stop-opacity:1"/>
   <stop offset="100%" style="stop-color:#b57614; stop-opacity:1"/>
  </linearGradient>
  <linearGradient id="aurora" x1="0%" x2="0%" y1="0%" y2="100%">
   <stop offset="0%" style="stop-color:#83a598; stop-opacity:1"/>
   <stop offset="100%" style="stop-color:#b16286; stop-opacity:1"/>
  </linearGradient>
  <linearGradient id="fitdance" x1="0%" x2="0%" y1="0%" y2="100%">
   <stop offset="0%" style="stop-color:#8ec07c; stop-opacity:1"/>
   <stop offset="100%" style="stop-color:#458588; stop-opacity:1"/>
  </linearGradient>
  <linearGradient id="oomox" x1="0%" x2="0%" y1="0%" y2="100%">
   <stop offset="0%" style="stop-color:#458588; stop-opacity:1"/>
   <stop offset="100%" style="stop-color:#928374; stop-opacity:1"/>
  </linearGradient>
  <linearGradient id="rainblue" x1="0%" x2="0%" y1="0%" y2="100%">
   <stop offset="0%" style="stop-color:#b8bb26; stop-opacity:1"/>
   <stop offset="100%" style="stop-color:#076678; stop-opacity:1"/>
  </linearGradient>
  <linearGradient id="sunrise" x1="0%" x2="0%" y1="0%" y2="100%">
   <stop offset="0%" style="stop-color: #fe8019; stop-opacity:1"/>
   <stop offset="100%" style="stop-color: #fabd2f; stop-opacity:1"/>
  </linearGradient>
  <linearGradient id="telinkrin" x1="0%" x2="0%" y1="0%" y2="100%">
   <stop offset="0%" style="stop-color: #83a598; stop-opacity:1"/>
   <stop offset="100%" style="stop-color: #83a598; stop-opacity:1"/>
  </linearGradient>
  <linearGradient id="60spsycho" x1="0%" x2="0%" y1="0%" y2="100%">
   <stop offset="0%" style="stop-color: #fb4934; stop-opacity:1"/>
   <stop offset="25%" style="stop-color: #fabd2f; stop-opacity:1"/>
   <stop offset="50%" style="stop-color: #fe8019; stop-opacity:1"/>
   <stop offset="100%" style="stop-color: #689d6a; stop-opacity:1"/>
  </linearGradient>
  <linearGradient id="90ssummer" x1="0%" x2="0%" y1="0%" y2="100%">
   <stop offset="0%" style="stop-color: #b16286; stop-opacity:1"/>
   <stop offset="20%" style="stop-color: #8ec07c; stop-opacity:1"/>
   <stop offset="50%" style="stop-color: #fabd2f; stop-opacity:1"/>
   <stop offset="100%" style="stop-color: #458588; stop-opacity:1"/>
  </linearGradient>
  <linearGradient id="cyberneon" x1="0%" x2="0%" y1="0%" y2="100%">
    <stop offset="0" style="stop-color:#83a598; stop-opacity:1"/>
    <stop offset="1" style="stop-color:#b16286; stop-opacity:1"/>
  </linearGradient>
  <clipPath id="_clipPath_CJ54M7Kt575L1aIFpD7kfFbTATF82o6c">
   <rect width="16" height="16"/>
  </clipPath>
 </defs>
 <g clip-path="url(#_clipPath_CJ54M7Kt575L1aIFpD7kfFbTATF82o6c)">
  <rect style="fill:currentColor" class="ColorScheme-Text" width="4.625" height="3.594" x="17.19" y=".06" transform="matrix(1,0,0,1,0,0)"/>
  <path style="fill:currentColor" class="ColorScheme-Text" fill-rule="evenodd" d="M 7.999 1 C 7.376 2.528 7 3.527 6.306 5.009 C 6.731 5.46 7.253 5.985 8.101 6.578 C 7.19 6.203 6.568 5.827 6.103 5.436 C 5.215 7.289 3.824 9.928 1.001 15 C 3.22 13.719 4.94 12.929 6.543 12.628 C 6.474 12.332 6.435 12.012 6.438 11.678 L 6.44 11.607 C 6.475 10.185 7.215 9.092 8.091 9.166 C 8.967 9.24 9.648 10.454 9.612 11.875 C 9.606 12.143 9.576 12.4 9.523 12.639 C 11.108 12.949 12.81 13.736 14.999 15 C 14.567 14.205 14.182 13.489 13.814 12.807 C 13.235 12.358 12.63 11.773 11.397 11.141 C 12.245 11.361 12.851 11.615 13.324 11.899 C 9.584 4.935 9.281 4.01 7.999 1 L 7.999 1 Z"/>
 </g>
</svg>
